src/icons/main-infrastructure-provisioners.svg

<svg enable-background="new 0 0 14 14" viewBox="0 0 14 14" xmlns="http://www.w3.org/2000/svg"><path d="m5.9 0h1.1c.3 0 .5.3.5.8v1.5c0 .4-.2.7-.5.7h-1.1c-.3 0-.5-.3-.5-.8v-1.4c0-.5.2-.8.5-.8m0 11h1.1c.3 0 .5.3.5.8v1.5c0 .4-.2.7-.5.7h-1.1c-.3 0-.5-.3-.5-.8v-1.5c0-.4.2-.7.5-.7m6.5 0h1.1c.3 0 .5.3.5.8v1.5c0 .4-.2.8-.5.8h-1.1c-.3 0-.5-.3-.5-.8v-1.5c-.1-.5.2-.8.5-.8m-11.9 0h1.1c.3 0 .5.3.5.8v1.5c0 .4-.2.8-.5.8h-1.1c-.3-.1-.5-.4-.5-.9v-1.5c0-.4.2-.7.5-.7m12.4-3.5v3.5h-1.3v-2.8h-3.9v2.8h-1.4v-2.8h-3.9v2.8h-1.3v-3.5c0-.4.3-.7.7-.7h4.6v-2.8h1.3v2.8h4.6c.3 0 .6.3.6.7" fill="#4d5969"/></svg>

<svg viewBox="0 0 14 14" xmlns="http://www.w3.org/2000/svg"><path d="M5.9 0H7c.3 0 .5.3.5.8v1.5c0 .4-.2.7-.5.7H5.9c-.3 0-.5-.3-.5-.8V.8c0-.5.2-.8.5-.8m0 11H7c.3 0 .5.3.5.8v1.5c0 .4-.2.7-.5.7H5.9c-.3 0-.5-.3-.5-.8v-1.5c0-.4.2-.7.5-.7m6.5 0h1.1c.3 0 .5.3.5.8v1.5c0 .4-.2.8-.5.8h-1.1c-.3 0-.5-.3-.5-.8v-1.5c-.1-.5.2-.8.5-.8M.5 11h1.1c.3 0 .5.3.5.8v1.5c0 .4-.2.8-.5.8H.5c-.3-.1-.5-.4-.5-.9v-1.5c0-.4.2-.7.5-.7m12.4-3.5V11h-1.3V8.2H7.7V11H6.3V8.2H2.4V11H1.1V7.5c0-.4.3-.7.7-.7h4.6V4h1.3v2.8h4.6c.3 0 .6.3.6.7" fill="#4d5969"/></svg>
